X:1
T:[ID 5-24]
T:[ID 5-24]
T:Bezeichnung standardisiert: Holl\"andisch Hollendisch In anderer Quelle: Alt Hollaendisch - Tanzbuch aus Arendsee (Anm. S. Wascher);
T:Urheber unbekannt Datum in der hier transkribierten schriftlichen Quelle: 1773
C:Urheber unbekannt
C:Datum in der hier transkribierten schriftlichen Quelle: 1773
L:1/8
M:4/4
K:F
V:1 treble 
V:1
 G2 | G2 Bc d2 g2 | g2 fe d2 g2 | e2 a2 g2 f2 | gfga g2 G2 | G2 Bc d2 g2 | f2 g2 a2 g2 | %7
 f2 ed e2 dc | d6 :: d4 d2 c2 | B4 B4 | e2 ef g2 fe | f2 B B4 f | g2 f2 g2 f2 | g2 a2 b4 | %15
 e2 g2 f2 e^d | e4 f4 | g2 d2 d2 c2 | B4 G4 | c2 B2 A2 c2 | d2 D2 D2 d2 | d2 dc B2 e2 | %22
 e2 d2 d2 g2 | e2 a2 g2 f2 | g6 :| %25

